X: 1
T: Old Woman From The Glen, The
M: 4/4
L: 1/8
R: reel
K: Gmaj
|:G2BG DGBD|G2BG DG (3Bcd|e2ge edBd|egdB ABGE|
G2BG DGBD|G2BG DG (3Bcd|e2ge edBd|1 egdB ~A3B:|2 egdB ~A3a||
|:bagb aged|e2ge edBA|G2BG DG (3Bcd|e2ge edBd|
bagb agea|gedg edBd|e2ge edBd|1 egdB ~A3a:|2 egdB ~A3B||
